packages/foundations/assets/icons/functional/images/file/document_check.svg

<svg xmlns="http://www.w3.org/2000/svg" width="32" height="32" fill="none"><path fill="#1A1C1F" fill-rule="evenodd" d="M4.453 2.16c-.625.258-1.077.701-1.314 1.288l-.126.312v24.48l.124.307a2.41 2.41 0 0 0 1.37 1.331l.32.12 5.036.016c3.561.012 5.12-.001 5.323-.043.893-.186 1.102-1.299.34-1.814l-.193-.13-5.089-.015c-3.611-.01-5.11-.031-5.16-.073-.058-.049-.071-2.125-.071-11.944 0-11.695.002-11.885.103-11.94C5.185 4.018 6.838 4 10.101 4h4.882l.015 2.662.015 2.662.16.227c.088.124.256.276.374.338.206.108.295.111 2.84.127l2.626.015v1.595c0 .994.022 1.65.057 1.744.181.481.762.729 1.296.552.238-.078.552-.423.594-.652.017-.097.025-1.377.016-2.843L22.96 7.76l-.176-.373c-.163-.348-.333-.531-2.48-2.674-2.121-2.117-2.334-2.314-2.677-2.48l-.374-.18-6.24-.012-6.24-.013zm14.454 3.973L20.773 8h-3.76V6.133c0-1.026.006-1.866.014-1.866.007 0 .853.84 1.88 1.866M7.532 14.329c-.322.158-.546.54-.544.924.001.183.171.535.326.678.313.288.228.282 4.191.281 3.433-.001 3.682-.007 3.882-.098.624-.284.799-1.038.361-1.559-.274-.325-.137-.315-4.266-.314-3.366.001-3.794.011-3.95.088m13.622 1.724a7.4 7.4 0 0 0-3.101 1.161c-.476.311-1.531 1.367-1.85 1.853-.52.79-.866 1.62-1.065 2.547-.151.71-.164 1.967-.027 2.666a7.1 7.1 0 0 0 2.315 4.013 6.99 6.99 0 0 0 9.148 0c1.175-1.01 1.941-2.32 2.292-3.92.161-.733.159-2.001-.005-2.762-.312-1.457-.977-2.648-2.05-3.671a6.9 6.9 0 0 0-3.476-1.807c-.508-.102-1.671-.145-2.181-.08m2.179 2.129a5.12 5.12 0 0 1 3.506 3.567c.156.565.167 1.883.02 2.433-.603 2.255-2.591 3.817-4.859 3.817s-4.256-1.562-4.859-3.817c-.147-.55-.136-1.868.02-2.433a5.1 5.1 0 0 1 3.337-3.51c.555-.18.807-.208 1.662-.188.614.015.887.045 1.173.131m-15.801.147c-.322.158-.546.54-.544.924.001.183.171.535.326.678.306.282.316.282 3.204.281 2.504-.001 2.697-.008 2.902-.101.713-.324.762-1.371.082-1.753-.209-.118-.218-.118-3.003-.117-2.461.001-2.813.012-2.967.088m15.935 2.768c-.112.047-.603.5-1.218 1.122l-1.03 1.044-.34-.326c-.187-.18-.424-.362-.527-.405a.97.97 0 0 0-1.311 1.15c.052.193.192.365.811.993.411.417.832.799.936.848.234.112.638.115.843.007.086-.045.818-.749 1.627-1.566 1.309-1.32 1.479-1.511 1.538-1.728.205-.76-.6-1.449-1.329-1.139M7.532 22.328c-.322.16-.546.542-.544.925.001.183.171.535.326.678.3.276.36.282 2.698.281 1.994-.001 2.193-.009 2.39-.099a.99.99 0 0 0 .202-1.697l-.196-.149-2.35-.013c-2.084-.012-2.371-.003-2.526.074"/></svg>

<svg width="32" height="32" viewBox="0 0 32 32" fill="none" xmlns="http://www.w3.org/2000/svg"><path d="M4.453 2.160 C 3.828 2.418,3.376 2.861,3.139 3.448 L 3.013 3.760 3.013 16.000 L 3.013 28.240 3.137 28.547 C 3.381 29.150,3.890 29.645,4.507 29.878 L 4.827 29.998 9.863 30.014 C 13.424 30.026,14.983 30.013,15.186 29.971 C 16.079 29.785,16.288 28.672,15.526 28.157 L 15.333 28.027 10.244 28.012 C 6.633 28.002,5.134 27.981,5.084 27.939 C 5.026 27.890,5.013 25.814,5.013 15.995 C 5.013 4.300,5.015 4.110,5.116 4.055 C 5.185 4.018,6.838 4.000,10.101 4.000 L 14.983 4.000 14.998 6.662 L 15.013 9.324 15.173 9.551 C 15.261 9.675,15.429 9.827,15.547 9.889 C 15.753 9.997,15.842 10.000,18.387 10.016 L 21.013 10.031 21.013 11.626 C 21.013 12.620,21.035 13.276,21.070 13.370 C 21.251 13.851,21.832 14.099,22.366 13.922 C 22.604 13.844,22.918 13.499,22.960 13.270 C 22.977 13.173,22.985 11.893,22.976 10.427 L 22.960 7.760 22.784 7.387 C 22.621 7.039,22.451 6.856,20.304 4.713 C 18.183 2.596,17.970 2.399,17.627 2.233 L 17.253 2.053 11.013 2.041 L 4.773 2.028 4.453 2.160 M18.907 6.133 L 20.773 8.000 18.893 8.000 L 17.013 8.000 17.013 6.133 C 17.013 5.107,17.019 4.267,17.027 4.267 C 17.034 4.267,17.880 5.107,18.907 6.133 M7.532 14.329 C 7.210 14.487,6.986 14.869,6.988 15.253 C 6.989 15.436,7.159 15.788,7.314 15.931 C 7.627 16.219,7.542 16.213,11.505 16.212 C 14.938 16.211,15.187 16.205,15.387 16.114 C 16.011 15.830,16.186 15.076,15.748 14.555 C 15.474 14.230,15.611 14.240,11.482 14.241 C 8.116 14.242,7.688 14.252,7.532 14.329 M21.154 16.053 C 20.083 16.188,19.008 16.591,18.053 17.214 C 17.577 17.525,16.522 18.581,16.203 19.067 C 15.683 19.857,15.337 20.687,15.138 21.614 C 14.987 22.324,14.974 23.581,15.111 24.280 C 15.422 25.855,16.239 27.273,17.426 28.293 C 20.071 30.566,23.929 30.566,26.574 28.293 C 27.749 27.283,28.515 25.973,28.866 24.373 C 29.027 23.640,29.025 22.372,28.861 21.611 C 28.549 20.154,27.884 18.963,26.811 17.940 C 25.828 17.002,24.674 16.402,23.335 16.133 C 22.827 16.031,21.664 15.988,21.154 16.053 M23.333 18.182 C 25.059 18.696,26.362 20.023,26.839 21.749 C 26.995 22.314,27.006 23.632,26.859 24.182 C 26.256 26.437,24.268 27.999,22.000 27.999 C 19.732 27.999,17.744 26.437,17.141 24.182 C 16.994 23.632,17.005 22.314,17.161 21.749 C 17.623 20.078,18.871 18.765,20.498 18.239 C 21.053 18.059,21.305 18.031,22.160 18.051 C 22.774 18.066,23.047 18.096,23.333 18.182 M7.532 18.329 C 7.210 18.487,6.986 18.869,6.988 19.253 C 6.989 19.436,7.159 19.788,7.314 19.931 C 7.620 20.213,7.630 20.213,10.518 20.212 C 13.022 20.211,13.215 20.204,13.420 20.111 C 14.133 19.787,14.182 18.740,13.502 18.358 C 13.293 18.240,13.284 18.240,10.499 18.241 C 8.038 18.242,7.686 18.253,7.532 18.329 M23.467 21.097 C 23.355 21.144,22.864 21.597,22.249 22.219 L 21.219 23.263 20.879 22.937 C 20.692 22.757,20.455 22.575,20.352 22.532 C 19.606 22.220,18.830 22.901,19.041 23.682 C 19.093 23.875,19.233 24.047,19.852 24.675 C 20.263 25.092,20.684 25.474,20.788 25.523 C 21.022 25.635,21.426 25.638,21.631 25.530 C 21.717 25.485,22.449 24.781,23.258 23.964 C 24.567 22.644,24.737 22.453,24.796 22.236 C 25.001 21.476,24.196 20.787,23.467 21.097 M7.532 22.328 C 7.210 22.488,6.986 22.870,6.988 23.253 C 6.989 23.436,7.159 23.788,7.314 23.931 C 7.614 24.207,7.674 24.213,10.012 24.212 C 12.006 24.211,12.205 24.203,12.402 24.113 C 13.096 23.798,13.206 22.875,12.604 22.416 L 12.408 22.267 10.058 22.254 C 7.974 22.242,7.687 22.251,7.532 22.328 " fill="#1A1C1F" stroke="none" fill-rule="evenodd"></path></svg>
